icons/themes/default/calculator.svg

<svg viewBox="0 0 20 20" fill="none" xmlns="http://www.w3.org/2000/svg">
<path d="M4 12.9993V7C4 5.11438 4 4.17157 4.58579 3.58579C5.17157 3 6.11438 3 8 3H12.1663H12.5002C13.9045 3 14.6066 3 15.111 3.33698C15.3295 3.48294 15.5171 3.67051 15.663 3.88897C16 4.39338 16 5.09553 16 6.49983V12.9993C16 14.8849 16 15.8277 15.4142 16.4135C14.8284 16.9993 13.8856 16.9993 12 16.9993H8C6.11438 16.9993 5.17157 16.9993 4.58579 16.4135C4 15.8277 4 14.8849 4 12.9993Z" stroke="currentColor" stroke-width="1.1"/>
<path fill-rule="evenodd" clip-rule="evenodd" d="M7 10C7.41421 10 7.75 9.66421 7.75 9.25C7.75 8.83579 7.41421 8.5 7 8.5C6.58579 8.5 6.25 8.83579 6.25 9.25C6.25 9.66421 6.58579 10 7 10ZM7.75 11.75C7.75 12.1642 7.41421 12.5 7 12.5C6.58579 12.5 6.25 12.1642 6.25 11.75C6.25 11.3358 6.58579 11 7 11C7.41421 11 7.75 11.3358 7.75 11.75ZM10.75 11.75C10.75 12.1642 10.4142 12.5 10 12.5C9.58579 12.5 9.25 12.1642 9.25 11.75C9.25 11.3358 9.58579 11 10 11C10.4142 11 10.75 11.3358 10.75 11.75ZM13 12.5C13.4142 12.5 13.75 12.1642 13.75 11.75C13.75 11.3358 13.4142 11 13 11C12.5858 11 12.25 11.3358 12.25 11.75C12.25 12.1642 12.5858 12.5 13 12.5ZM7.75 14.25C7.75 14.6642 7.41421 15 7 15C6.58579 15 6.25 14.6642 6.25 14.25C6.25 13.8358 6.58579 13.5 7 13.5C7.41421 13.5 7.75 13.8358 7.75 14.25ZM10 15C10.4142 15 10.75 14.6642 10.75 14.25C10.75 13.8358 10.4142 13.5 10 13.5C9.58579 13.5 9.25 13.8358 9.25 14.25C9.25 14.6642 9.58579 15 10 15ZM13.75 14.25C13.75 14.6642 13.4142 15 13 15C12.5858 15 12.25 14.6642 12.25 14.25C12.25 13.8358 12.5858 13.5 13 13.5C13.4142 13.5 13.75 13.8358 13.75 14.25ZM10.75 9.25C10.75 9.66421 10.4142 10 10 10C9.58579 10 9.25 9.66421 9.25 9.25C9.25 8.83579 9.58579 8.5 10 8.5C10.4142 8.5 10.75 8.83579 10.75 9.25ZM13 10C13.4142 10 13.75 9.66421 13.75 9.25C13.75 8.83579 13.4142 8.5 13 8.5C12.5858 8.5 12.25 8.83579 12.25 9.25C12.25 9.66421 12.5858 10 13 10Z" fill="currentColor"/>
<rect x="6.25" y="5" width="7.5" height="1.5" rx="0.75" fill="currentColor"/>
</svg>

<svg xmlns="http://www.w3.org/2000/svg" fill="none" viewBox="0 0 20 20">
  <path stroke="currentColor" stroke-width="1.1" d="M4 13V7c0-1.886 0-2.828.586-3.414C5.172 3 6.114 3 8 3h4.5c1.405 0 2.107 0 2.611.337a2 2 0 0 1 .552.552C16 4.393 16 5.096 16 6.499V13c0 1.886 0 2.829-.586 3.414C14.828 17 13.886 17 12 17H8c-1.886 0-2.828 0-3.414-.585C4 15.827 4 14.883 4 12.998Z"/>
  <path fill="currentColor" fill-rule="evenodd" d="M7 10a.75.75 0 1 0 0-1.5.75.75 0 0 0 0 1.5Zm.75 1.75a.75.75 0 1 1-1.5 0 .75.75 0 0 1 1.5 0Zm3 0a.75.75 0 1 1-1.5 0 .75.75 0 0 1 1.5 0Zm2.25.75a.75.75 0 1 0 0-1.5.75.75 0 0 0 0 1.5Zm-5.25 1.75a.75.75 0 1 1-1.5 0 .75.75 0 0 1 1.5 0ZM10 15a.75.75 0 1 0 0-1.5.75.75 0 0 0 0 1.5Zm3.75-.75a.75.75 0 1 1-1.5 0 .75.75 0 0 1 1.5 0Zm-3-5a.75.75 0 1 1-1.5 0 .75.75 0 0 1 1.5 0ZM13 10a.75.75 0 1 0 0-1.5.75.75 0 0 0 0 1.5Z" clip-rule="evenodd"/>
  <rect width="7.5" height="1.5" x="6.25" y="5" fill="currentColor" rx=".75"/>
</svg>
